FINK
CUT[IN DES WALDES DUESTERN GRUENDEN]
REG[Europa, Mitteleuropa, Deutschland]
KEY[F0855  08 Bb 4/4]
MEL[-5-5  1_.1-5_-5_  -3_-1_0_
    11  -7_1_2_3_  254#32_
    11  -7_.12_2_  -5__0_
    -5-5  4_.23_.1  322_0_
    -5-5  4_.23_.1  322_0_
    -5-5  1_1_2_2_  5_.31_
    11  -6_421_-7_  1__0_ //] >>
FCT[erzaehlendes Volks - Lied, Ballade, Raeuber]
